X: 17
T: HORNPIPE: Liverpool
C: C: Trad.; S: Various
C: Set Leaders: Mars, Tania
Z: Mars Agliullin ed.; Finnbarr at The Session
N: https://thesession.org/members/26966/sets/94258
R: Hornpipe
M: 4/4
L: 1/8
Q: 1/2=82
K: Dmaj
|:AG|FD FA df af|gf ec dc BA|G2 BG F2 AF|ED EF GB AG|
FD FA df af|gf ec dc BA|df af bg ec|d2 dc d2:||
|:(3ABc|d2 fd c2 dc|BA Bc dc BA|G2 BG F2 AF|ED EF GB AG|
FD FA df af|gf ec dc BA|df af bg ec|d2 dc d2:||

